Icons/svg/copy_bw.svg

<svg xmlns="http://www.w3.org/2000/svg" width="308" height="329" viewBox="0 0 308 329"><g stroke="#323232" stroke-width="10" stroke-linecap="round" stroke-miterlimit="10" fill="none"><path d="M225 5h-220v260h45v-209h175zM83 94v230h220v-230h-220zm168 163h-116v-27h116v27zm0-66h-116v-27h116v27z"/></g></svg>

<?xml version="1.0" encoding="utf-8"?>
<!-- Generator: Adobe Illustrator 18.1.1, SVG Export Plug-In . SVG Version: 6.00 Build 0)  -->
<!DOCTYPE svg PUBLIC "-//W3C//DTD SVG 1.1//EN" "http://www.w3.org/Graphics/SVG/1.1/DTD/svg11.dtd">
<svg version="1.1" id="Layer_1" xmlns="http://www.w3.org/2000/svg" xmlns:xlink="http://www.w3.org/1999/xlink" x="0px" y="0px"
	 viewBox="0 0 308 329" enable-background="new 0 0 308 329" xml:space="preserve">
<g>
	<polygon fill="none" stroke="#323232" stroke-width="10" stroke-linecap="round" stroke-miterlimit="10" points="225,5 5,5 5,265 
		50,265 50,56 225,56 	"/>
	<path fill="none" stroke="#323232" stroke-width="10" stroke-linecap="round" stroke-miterlimit="10" d="M83,94v230h220V94H83z
		 M251,257H135v-27h116V257z M251,191H135v-27h116V191z"/>
</g>
<g>
</g>
<g>
</g>
<g>
</g>
<g>
</g>
<g>
</g>
<g>
</g>
<g>
</g>
<g>
</g>
<g>
</g>
<g>
</g>
<g>
</g>
<g>
</g>
<g>
</g>
<g>
</g>
<g>
</g>
</svg>
